X:1
T:Title
%%score ( 1 2 ) ( 3 4 )
L:1/8
Q:1/4=80
M:4/4
K:Eb
V:1 treble nm="Strings 1, Soprano"
V:2 treble 
V:3 bass nm="Strings 1, Bass"
V:4 bass 
V:1
 z4 z2 EF | G3 G AGEF | G2 E4 DE | [DF]3 [DF] [DF][EG][FA][DB] | [EG]6 EF | G3 G AGEF | G2 E4 DE | %7
w: 1.~With *|in~ my~ heart~ were~ fond~ am|bi tion,~ Vain~ *|pride,~ and~ hopes~ of~ world ly~|fame;~ But~ *|still~ re mained~ a~ place~ so~|va cant,~ Un *|
 [DF]3 [DB] [DB][DA][DF][DG] | E6 [EG]2 | [DF]3 [EG] [FA][FA][EG][DF] | [EG]2 [GB]4 [GB]2 | %11
w: filled~ by~ high est~ earth ly~|aim.~ Then~|Je sus~ reached~ His~ hand~ to~|help~ me�~ "Come,~|
 [Ac]3 [A=B] [Ac][Ae][Ad][Ac] | [GB]6 [GB]2 | [Ge]3 [Ge] [GB][EG][EF]E | [EB]2 [EG]4 E2 | %15
w: seek~ My~ love,"~ I~ heard~ Him~|say;~ I~|quick ly~ left~ the~ world~ be|hind~ me,~ To~|
 [DF]3 [DB] [DB][DA][DF][DG] | E6 z2 |] %17
w: fol low~ Je sus~ all~ the~|way.~|
V:2
 x8 | x8 | z4 z2 B,2 | x8 | x8 | x8 | z4 z2 B,2 | x8 | x8 | x8 | x8 | x8 | x8 | x8 | x8 | x8 | %16
 x8 |] %17
V:3
 z4 z2 G,A, | B,3 B, CB,G,A, | B,2 G,4 F,G, | [B,,B,]3 [B,,B,] [B,,B,][B,,B,][B,,B,][B,,B,] | %4
 [E,B,]6 G,A, | B,3 B, CB,G,A, | B,2 G,4 F,G, | [B,,B,]3 [B,,B,] [B,,B,][B,,B,][B,,A,][B,,B,] | %8
 [E,G,]6 [E,B,]2 | [B,,B,]3 [B,,B,] [B,,B,][B,,B,][B,,B,][B,,B,] | [E,B,]2 [E,E]4 [E,E]2 | %11
 [A,E]3 [A,D] [A,E][A,C][A,D][A,E] | [E,E]6 [E,B,]2 | [E,B,]3 [E,B,] [E,E][E,B,][E,A,][E,G,] | %14
 [E,G,]2 [E,B,]4 [E,G,]2 | [B,,B,]3 [B,,B,] [B,,B,][B,,B,][B,,A,][B,,B,] | [E,G,]6 z2 |] %17
V:4
 x8 | x8 | z4 z2 B,,2 | x8 | x8 | x8 | z4 z2 B,,2 | x8 | x8 | x8 | x8 | x8 | x8 | x8 | x8 | x8 | %16
 x8 |] %17

